X: 5631
T: Butterfly
R: reel
M: 4/4
K: Eminor
B3A GEED|EB~B2 dBBA|B3A GEEA|B2eB dBA2|
B3A GEED|EB~B2 dBBA|B3A GEEA|B2eB dBA2||
B2ef gefd|BdeB dBA2|B2ef g3a|bage dBA2|
B2ef gefd|BdeB dBA2|B2ef g3a|bage dBA2||

